X:1
T:E b Major Daniel Read, 1785 (Revised 1795 & 1804)
T:Isaac Watts, 1719 {Psalm 27}  86. 86. (C. M.)
T:Victory
T:No copyright. Transcribed from the Columbian Harmonist, 1807.
T:No Copyright.  Transcribed from The American Singing Book, 1786.
Z:No Copyright.  Transcribed from The American Singing Book, 1786.
%%score [ 1 2 3 4 ]
L:1/8
M:none
K:Eb
V:1 treble nm="Treble" snm="Tr."
V:2 treble nm="Counter" snm="C."
V:3 treble-8 nm="Tenor" snm="T."
V:4 bass nm="Bass" snm="B."
V:1
 G4 G2 (GF) | E6 F2 | (G3 A) B4 | B6 B2 | B2 B2 B4 | =A4 B4- | B8 |: e4 e2 e2 | e4 B4 | B3 B B4 | %10
w: ||||||||||
 z8 | z8 | B8- | B4 e4 | B2 B2 B2 G2 | A8 | B4 B2 c2 | B4 B4 | B8 :| %19
w: ||sound,~|* With-|in Thy tem- ple|sound,||||
V:2
 E4 E2 F2 | G6 F2 | (E2 G2) F4 | E6 D2 | E2 G2 G4 | F4 F4- | F8 |: G4 G2 B2 | A4 F4 | G3 G G2 F2 | %10
w: 5.~Now shall my|head be|lift- * ed|high A-|bove my foes|a- round;||And songs of|joy and|vic- to- ry With-|
 E2 E2 D2 D2 | E6 z2 | G8- | G4 z4 | z8 | F8 | G4 G2 E2 | E4 F4 | G8 :| %19
w: in Thy tem- ple|sound,|sound,~|||sound,|With- in Thy|tem- ple|sound.|
V:3
 B4 B2 B2 | B6 (cd) | e4 f4 | g6 f2 | e2 e2 (e2 d2) | c4 B4- | B8 |: B4 e2 B2 | c4 B4 | e3 e e4 | %10
w: ||||||||||
 z4 B4 | e2 f2 g2 f2 | e8- | e4 z4 | z8 | c8 | e4 B2 A2 | G4 F4 | E8 :| %19
w: With-|in Thy tem- ple|sound,~|||||||
V:4
 E,4 E,2 E,2 | E,6 B,2 | C4 B,4 | E6 B,2 | E,2 E,2 E,4 | F,4 B,,4- | B,,8 |: E,4 E,2 G,2 | %8
w: ||||||||
 A,4 B,4 | E,3 E, E,2 F,2 | G,2 A,2 B,2 B,,2 | E,8- | E,8- | E,4 z4 | z8 | F,8 | E,4 G,2 A,2 | %17
w: |* * * With-|in Thy tem- ple|sound,~~||||||
 B,4 B,,4 | E,8 :| %19
w: ||

